images/personalised-praise-empty-state.svg

<svg width="210" height="183" viewBox="0 0 210 183" fill="none" xmlns="http://www.w3.org/2000/svg">
<g filter="url(#filter0_d_3470_112901)">
<path fill-rule="evenodd" clip-rule="evenodd" d="M149.549 61.9L74.6257 47.7147C69.4534 46.7355 64.4665 50.1346 63.4872 55.307L47.5288 139.595L69.8059 124.411L135.364 136.823C140.536 137.802 145.523 134.403 146.502 129.231L157.141 73.0385C158.12 67.8662 154.721 62.8793 149.549 61.9ZM127.271 77.0867C131.15 77.8211 133.7 81.5613 132.965 85.4406C132.231 89.3198 128.491 91.8692 124.611 91.1347C120.732 90.4003 118.183 86.6601 118.917 82.7808C119.652 78.9016 123.392 76.3522 127.271 77.0867ZM89.8098 69.9954C93.6891 70.7298 96.2384 74.47 95.504 78.3493C94.7695 82.2285 91.0293 84.7779 87.1501 84.0434C83.2708 83.309 80.7214 79.5688 81.4559 75.6895C82.1904 71.8102 85.9305 69.2609 89.8098 69.9954ZM101.448 111.005C89.2258 108.691 79.4243 103.586 77.6502 91.9479L130.565 101.966C124.659 112.15 113.669 113.319 101.448 111.005Z" fill="#3161C5"/>
</g>
<path fill-rule="evenodd" clip-rule="evenodd" d="M199.871 135.212L181.984 139.525C180.749 139.822 179.99 141.065 180.287 142.3L185.139 162.422L188.533 156.872L204.184 153.098C205.419 152.801 206.178 151.558 205.881 150.323L202.646 136.908C202.348 135.673 201.106 134.914 199.871 135.212ZM196.478 140.762C197.404 140.539 198.335 141.109 198.559 142.035C198.782 142.961 198.212 143.893 197.286 144.116C196.36 144.34 195.428 143.77 195.205 142.844C194.982 141.918 195.551 140.986 196.478 140.762ZM187.534 142.919C188.46 142.696 189.392 143.265 189.615 144.192C189.839 145.118 189.269 146.049 188.343 146.273C187.417 146.496 186.485 145.926 186.262 145C186.038 144.074 186.608 143.142 187.534 142.919ZM194.162 150.783C191.245 151.487 188.582 151.336 187.037 148.953L199.67 145.907C199.381 148.732 197.08 150.08 194.162 150.783Z" fill="#95DBCD"/>
<path fill-rule="evenodd" clip-rule="evenodd" d="M15.4159 46.9098L1.7892 59.2732C0.84847 60.1267 0.777765 61.5812 1.63128 62.5219L15.54 77.852L15.8559 71.3545L27.7792 60.5366C28.72 59.683 28.7907 58.2285 27.9372 57.2878L18.6647 47.0678C17.8112 46.127 16.3566 46.0563 15.4159 46.9098ZM15.1009 53.4079C15.8065 52.7677 16.8973 52.8207 17.5375 53.5263C18.1776 54.2318 18.1246 55.3227 17.419 55.9629C16.7135 56.603 15.6226 56.55 14.9825 55.8444C14.3423 55.1389 14.3954 54.048 15.1009 53.4079ZM8.28739 59.59C8.99293 58.9499 10.0838 59.0029 10.724 59.7085C11.3641 60.414 11.3111 61.5049 10.6055 62.145C9.89997 62.7852 8.80908 62.7321 8.16895 62.0266C7.52881 61.321 7.58184 60.2301 8.28739 59.59ZM17.8757 63.3118C15.6529 65.3285 13.2445 66.4733 10.7457 65.1226L20.3696 56.3909C21.4716 59.009 20.0986 61.295 17.8757 63.3118Z" fill="#FCEFC6"/>
<path fill-rule="evenodd" clip-rule="evenodd" d="M113.599 2.11196L101.747 0.234751C100.929 0.105157 100.161 0.663404 100.031 1.48163L97.9192 14.8154L101.352 12.3217L111.722 13.9642C112.541 14.0938 113.309 13.5356 113.438 12.7173L114.846 3.82815C114.976 3.00992 114.418 2.24156 113.599 2.11196ZM110.167 4.60626C110.781 4.70345 111.2 5.27972 111.103 5.89339C111.005 6.50707 110.429 6.92575 109.815 6.82856C109.202 6.73136 108.783 6.15509 108.88 5.54142C108.977 4.92774 109.554 4.50906 110.167 4.60626ZM104.241 3.66785C104.854 3.76504 105.273 4.34131 105.176 4.95498C105.078 5.56866 104.502 5.98734 103.889 5.89014C103.275 5.79295 102.856 5.21668 102.953 4.60301C103.051 3.98933 103.627 3.57065 104.241 3.66785ZM106.266 10.0628C104.332 9.75653 102.766 8.99976 102.432 7.17757L110.803 8.50335C109.922 10.1331 108.199 10.369 106.266 10.0628Z" fill="#FBE8E6"/>
<path fill-rule="evenodd" clip-rule="evenodd" d="M102.8 171H93.2C92.5373 171 92 171.537 92 172.2V183L94.4 180.6H102.8C103.463 180.6 104 180.063 104 179.4V172.2C104 171.537 103.463 171 102.8 171ZM100.4 173.4C100.897 173.4 101.3 173.803 101.3 174.3C101.3 174.797 100.897 175.2 100.4 175.2C99.9031 175.2 99.5002 174.797 99.5002 174.3C99.5002 173.803 99.9031 173.4 100.4 173.4ZM95.5998 173.4C96.0969 173.4 96.4998 173.803 96.4998 174.3C96.4998 174.797 96.0969 175.2 95.5998 175.2C95.1027 175.2 94.6998 174.797 94.6998 174.3C94.6998 173.803 95.1027 173.4 95.5998 173.4ZM98.0002 178.2C96.4342 178.2 95.1022 177.798 94.6102 176.4H101.39C100.898 177.798 99.5662 178.2 98.0002 178.2Z" fill="#ADBEE5"/>
<path fill-rule="evenodd" clip-rule="evenodd" d="M9.1687 148.856H1.1687C0.616416 148.856 0.168701 149.304 0.168701 149.856L0.168701 158.856L2.1687 156.856H9.1687C9.72099 156.856 10.1687 156.408 10.1687 155.856V149.856C10.1687 149.304 9.72099 148.856 9.1687 148.856ZM7.16894 150.856C7.58315 150.856 7.91894 151.192 7.91894 151.606C7.91894 152.02 7.58315 152.356 7.16894 152.356C6.75472 152.356 6.41894 152.02 6.41894 151.606C6.41894 151.192 6.75472 150.856 7.16894 150.856ZM3.16847 150.856C3.58269 150.856 3.91847 151.192 3.91847 151.606C3.91847 152.02 3.58269 152.356 3.16847 152.356C2.75426 152.356 2.41847 152.02 2.41847 151.606C2.41847 151.192 2.75426 150.856 3.16847 150.856ZM5.16878 154.856C3.86378 154.856 2.75378 154.521 2.34378 153.356H7.99378C7.58378 154.521 6.47378 154.856 5.16878 154.856Z" fill="#ADBEE5"/>
<path fill-rule="evenodd" clip-rule="evenodd" d="M208.8 61H199.2C198.537 61 198 61.5373 198 62.2V73L200.4 70.6H208.8C209.463 70.6 210 70.0627 210 69.4V62.2C210 61.5373 209.463 61 208.8 61ZM206.4 63.4004C206.897 63.4004 207.3 63.8033 207.3 64.3004C207.3 64.7974 206.897 65.2004 206.4 65.2004C205.903 65.2004 205.5 64.7974 205.5 64.3004C205.5 63.8033 205.903 63.4004 206.4 63.4004ZM201.6 63.4006C202.097 63.4006 202.5 63.8035 202.5 64.3006C202.5 64.7976 202.097 65.2006 201.6 65.2006C201.103 65.2006 200.7 64.7976 200.7 64.3006C200.7 63.8035 201.103 63.4006 201.6 63.4006ZM204 68.2002C202.434 68.2002 201.102 67.7982 200.61 66.4002H207.39C206.898 67.7982 205.566 68.2002 204 68.2002Z" fill="#E0F3EE"/>
<defs>
<filter id="filter0_d_3470_112901" x="45.5288" y="47.5466" width="113.78" height="96.0486" filterUnits="userSpaceOnUse" color-interpolation-filters="sRGB">
<feFlood flood-opacity="0" result="BackgroundImageFix"/>
<feColorMatrix in="SourceAlpha" type="matrix" values="0 0 0 0 0 0 0 0 0 0 0 0 0 0 0 0 0 0 127 0" result="hardAlpha"/>
<feOffset dy="2"/>
<feGaussianBlur stdDeviation="1"/>
<feComposite in2="hardAlpha" operator="out"/>
<feColorMatrix type="matrix" values="0 0 0 0 0 0 0 0 0 0 0 0 0 0 0 0 0 0 0.25 0"/>
<feBlend mode="normal" in2="BackgroundImageFix" result="effect1_dropShadow_3470_112901"/>
<feBlend mode="normal" in="SourceGraphic" in2="effect1_dropShadow_3470_112901" result="shape"/>
</filter>
</defs>
</svg>

<svg xmlns="http://www.w3.org/2000/svg" width="210" height="183" fill="none" viewBox="0 0 210 183">
	<g filter="url(#filter0_d_3470_112901)">
		<path fill="#3161C5" fill-rule="evenodd" d="M149.549 61.9 74.626 47.715a9.532 9.532 0 0 0-11.139 7.592L47.53 139.595l22.277-15.184 65.558 12.412c5.172.979 10.159-2.42 11.138-7.592l10.639-56.192c.979-5.173-2.42-10.16-7.592-11.139Zm-22.278 15.187a7.148 7.148 0 1 1-2.66 14.048 7.15 7.15 0 0 1 2.66-14.048ZM89.81 69.995a7.149 7.149 0 1 1-2.66 14.048 7.149 7.149 0 0 1 2.66-14.048Zm11.638 41.01c-12.222-2.314-22.024-7.419-23.798-19.057l52.915 10.018c-5.906 10.184-16.896 11.353-29.117 9.039Z" clip-rule="evenodd"/>
	</g>
	<path fill="#95DBCD" fill-rule="evenodd" d="m199.871 135.212-17.887 4.313a2.3 2.3 0 0 0-1.697 2.775l4.852 20.122 3.394-5.55 15.651-3.774a2.3 2.3 0 0 0 1.697-2.775l-3.235-13.415a2.3 2.3 0 0 0-2.775-1.696Zm-3.393 5.55a1.726 1.726 0 1 1 .807 3.356 1.726 1.726 0 0 1-.807-3.356Zm-8.944 2.157a1.724 1.724 0 1 1 .809 3.353 1.724 1.724 0 0 1-.809-3.353Zm6.628 7.864c-2.917.704-5.58.553-7.125-1.83l12.633-3.046c-.289 2.825-2.59 4.173-5.508 4.876Z" clip-rule="evenodd"/>
	<path fill="#FCEFC6" fill-rule="evenodd" d="M15.416 46.91 1.789 59.273a2.3 2.3 0 0 0-.158 3.249l13.909 15.33.316-6.498 11.923-10.817a2.3 2.3 0 0 0 .158-3.25l-9.272-10.22a2.3 2.3 0 0 0-3.25-.157Zm-.315 6.498a1.725 1.725 0 1 1 2.318 2.555 1.725 1.725 0 0 1-2.318-2.555ZM8.287 59.59a1.725 1.725 0 1 1 2.318 2.555 1.725 1.725 0 0 1-2.318-2.555Zm9.589 3.722c-2.223 2.017-4.632 3.161-7.13 1.81l9.624-8.731c1.102 2.618-.271 4.904-2.494 6.92Z" clip-rule="evenodd"/>
	<path fill="#FBE8E6" fill-rule="evenodd" d="M113.599 2.112 101.747.235a1.5 1.5 0 0 0-1.716 1.247l-2.112 13.333 3.433-2.493 10.37 1.642a1.5 1.5 0 0 0 1.716-1.247l1.408-8.889a1.5 1.5 0 0 0-1.247-1.716Zm-3.432 2.494a1.125 1.125 0 1 1-.351 2.224 1.125 1.125 0 0 1 .351-2.224Zm-5.926-.938a1.126 1.126 0 1 1-.353 2.223 1.126 1.126 0 0 1 .353-2.223Zm2.025 6.395c-1.934-.306-3.5-1.063-3.834-2.885l8.371 1.325c-.881 1.63-2.604 1.866-4.537 1.56Z" clip-rule="evenodd"/>
	<path fill="#ADBEE5" fill-rule="evenodd" d="M102.8 171h-9.6a1.2 1.2 0 0 0-1.2 1.2V183l2.4-2.4h8.4a1.2 1.2 0 0 0 1.2-1.2v-7.2a1.2 1.2 0 0 0-1.2-1.2Zm-2.4 2.4a.9.9 0 1 1 0 1.8.9.9 0 0 1 0-1.8Zm-4.8 0a.9.9 0 1 1 0 1.8.9.9 0 0 1 0-1.8Zm2.4 4.8c-1.566 0-2.898-.402-3.39-1.8h6.78c-.492 1.398-1.824 1.8-3.39 1.8ZM9.169 148.856h-8a1 1 0 0 0-1 1v9l2-2h7a1 1 0 0 0 1-1v-6a1 1 0 0 0-1-1Zm-2 2a.75.75 0 1 1 0 1.5.75.75 0 0 1 0-1.5Zm-4 0a.75.75 0 1 1 0 1.5.75.75 0 0 1 0-1.5Zm2 4c-1.305 0-2.415-.335-2.825-1.5h5.65c-.41 1.165-1.52 1.5-2.825 1.5Z" clip-rule="evenodd"/>
	<path fill="#E0F3EE" fill-rule="evenodd" d="M208.8 61h-9.6a1.2 1.2 0 0 0-1.2 1.2V73l2.4-2.4h8.4a1.2 1.2 0 0 0 1.2-1.2v-7.2a1.2 1.2 0 0 0-1.2-1.2Zm-2.4 2.4a.9.9 0 1 1 0 1.8.9.9 0 0 1 0-1.8Zm-4.8 0a.9.9 0 1 1 0 1.8.9.9 0 0 1 0-1.8Zm2.4 4.8c-1.566 0-2.898-.402-3.39-1.8h6.78c-.492 1.398-1.824 1.8-3.39 1.8Z" clip-rule="evenodd"/>
	<defs>
		<filter id="filter0_d_3470_112901" width="113.78" height="96.049" x="45.529" y="47.547" color-interpolation-filters="sRGB" filterUnits="userSpaceOnUse">
			<feFlood flood-opacity="0" result="BackgroundImageFix"/>
			<feColorMatrix in="SourceAlpha" result="hardAlpha" values="0 0 0 0 0 0 0 0 0 0 0 0 0 0 0 0 0 0 127 0"/>
			<feOffset dy="2"/>
			<feGaussianBlur stdDeviation="1"/>
			<feComposite in2="hardAlpha" operator="out"/>
			<feColorMatrix values="0 0 0 0 0 0 0 0 0 0 0 0 0 0 0 0 0 0 0.25 0"/>
			<feBlend in2="BackgroundImageFix" result="effect1_dropShadow_3470_112901"/>
			<feBlend in="SourceGraphic" in2="effect1_dropShadow_3470_112901" result="shape"/>
		</filter>
	</defs>
</svg>
